examples/jitter_line.svg

<?xml version="1.0" encoding="utf-8" ?>
<svg baseProfile="full" height="100%" version="1.1" viewBox="0.0 0.0 510.0 510.0" width="100%" xmlns="http://www.w3.org/2000/svg" xmlns:ev="http://www.w3.org/2001/xml-events" xmlns:xlink="http://www.w3.org/1999/xlink"><defs /><path id="path6" stroke-width="2" stroke="black" fill="none" d="m10 10c0 0 12.974936796400002 7.678321169499998 31.656142617 31.656142617 26.3010092965 28.224218367099994 29.3932263425 29.8778548703 57.25431514979999 57.25431514979999 33.86062401520002 25.94251730020001 15.8675890202 19.06344413020001 51.79168426219999 51.79168426219999 44.98861715300001 58.798072343 70.53440700700003 78.32815383500002 100.05575005600002 100.05575005600002 37.00193450200001 36.40865398399998 32.92229149099998 33.37337258699998 55.392592888999985 55.392592888999985 19.795483203000003 5.851729527000032 24.27505142299998 34.151756659 70.215503463 70.215503463 15.443099905999986 23.396074516 10.40480549199998 13.251252236000028 31.37141491699998 31.37141491699998 6.509043769000016 11.472503967000023 14.738654612000005 9.814570607999997 32.918507921000014 32.918507921000014 33.16002155699999 37.81583509400002 59.344088725000006 59.344088725000006 59.344088725000006 59.344088725000006"/></svg>

<?xml version="1.0" encoding="UTF-8" standalone="no"?>
<svg
   xmlns:dc="http://purl.org/dc/elements/1.1/"
   xmlns:cc="http://creativecommons.org/ns#"
   xmlns:rdf="http://www.w3.org/1999/02/22-rdf-syntax-ns#"
   xmlns:svg="http://www.w3.org/2000/svg"
   xmlns="http://www.w3.org/2000/svg"
   xmlns:sodipodi="http://sodipodi.sourceforge.net/DTD/sodipodi-0.dtd"
   xmlns:inkscape="http://www.inkscape.org/namespaces/inkscape"
   height="100%"
   version="1.1"
   viewBox="0.0 0.0 510.0 510.0"
   width="100%"
   id="svg2"
   inkscape:version="0.48.4 r9939"
   sodipodi:docname="jitter_line.svg">
  <metadata
     id="metadata10">
    <rdf:RDF>
      <cc:Work
         rdf:about="">
        <dc:format>image/svg+xml</dc:format>
        <dc:type
           rdf:resource="http://purl.org/dc/dcmitype/StillImage" />
        <dc:title></dc:title>
      </cc:Work>
    </rdf:RDF>
  </metadata>
  <sodipodi:namedview
     pagecolor="#ffffff"
     bordercolor="#666666"
     borderopacity="1"
     objecttolerance="10"
     gridtolerance="10"
     guidetolerance="10"
     inkscape:pageopacity="0"
     inkscape:pageshadow="2"
     inkscape:window-width="1154"
     inkscape:window-height="758"
     id="namedview8"
     showgrid="false"
     inkscape:zoom="0.4627451"
     inkscape:cx="259.32203"
     inkscape:cy="255"
     inkscape:window-x="0"
     inkscape:window-y="25"
     inkscape:window-maximized="0"
     inkscape:current-layer="svg2" />
  <defs
     id="defs4" />
  <path
     d="M 10 10 C 10 10 22.9749367964 17.6783211695 41.656142617 41.656142617 67.9571519135 69.8803609841 71.0493689595 71.5339974873 98.9104577668 98.9104577668 132.771081782 124.852975067 114.778046787 117.973901897 150.702142029 150.702142029 195.690759182 209.500214372 221.236549036 229.030295864 250.757892085 250.757892085 287.759826587 287.166546069 283.680183576 284.131264672 306.150484974 306.150484974 325.945968177 312.002214501 330.425536397 340.302241633 376.365988437 376.365988437 391.809088343 399.762062953 386.770793929 389.617240673 407.737403354 407.737403354 414.246447123 419.209907321 422.476057966 417.551973962 440.655911275 440.655911275 473.815932832 478.471746369 500 500 500 500"
     fill="none"
     stroke="black"
     stroke-width="2"
     id="path6" />
</svg>
